X:385
T:Rondeau de Paul Lagardre
R:rondeau
C:trad.
A:Landes
O:France
Z:S. Piron
M:2/4
L:1/8
Q:1/4=95
K:G
A>B cd|e/2f/2e/2f/2 d/2e/2d/2e/2|A>B cd|e/2f/2e/2f/2 d2:|
|:c>A BG|A/2B/2c/2A/2 B/2G/2A/2B/2|c>A BG|A/2B/2A/2F/2G2:||
